!!!OTL: Der grosse Kaiser Napoleon
!!!ARE: Europa, Mitteleuropa, Deutschland, Rheinland
!!!SCT: E0358A
!!!YEM: Copyright 1995, estate of Helmut Schaffrath.
**kern
*ICvox
*Ivox
*M4/4
*k[f#]
*G:
{4d
=1
4g
4b
4a
4dd
=2
4.b
8a
4g}
{8g
8a
=3
4b
4b
4cc
8cc
8ee
=4
4.dd
8cc
4b}
{4dd
=5
4ee
4dd
2cc
=6
2b
4r}
{8b
8cc
=7
4dd
4b
4.ee
8dd
=8
4cc
8cc
8b
4a}
{8a
8b
=9
4cc
4a
4.dd
8cc
=10
4b
8b
8a
4g}
{4g
=11
4a
4ee
4dd
4cc
=12
2b
4r}
==
!!!AGN: historisches Lied, Krieg gegen Napoleon (1815)
!!!ONB: ESAC (Essen Associative Code) Database: ERK1
!!!AMT: simple quadruple
!!!AIN: vox
!!!EED: Helmut Schaffrath
!!!EEV: 1.0
*-
